setcps 1

d2 $ s "bd [sd cp:4]"

d3 $ s "bd <sd [arpy:6] [arpy:3]*2>" 
    # gain "1 0.8 1 1.2"


d1 $ jux rev $ n (off 0.125 (|+ 2) $ off 0.125 (|+ 12) $ off 0.125 (|+ 7)  
"<c*2 a(3,8) f(3,8,2) g*2>")
  # sound "supermandolin"
  # legato 2
  # gain "<1 1.2 1.3 1>"
  # room 0.2

-- | melody
d5 $ chunk 4 (|- note 5) $ jux rev $ arp "<pinkyup down thumbup up>" 
  $ n "<c'maj'4 e4'min'8 f4'maj'4>"
  # sound "supermandolin"
  # sustain 4 # room 0.3 # sz 0.4

d6 $ jux' [id,rev,(# speed 2)] $ every 2 ("0.25 0.125 0.5"<~) $ s "bd*2 [sn:1 hh]"
    # room (slow 4 $ range 0 0.2 saw)
    # sz 0.5
    # orbit 2

-- | drums
d7 $ off 0.25 (# vowel "<a o i e>") $ juxBy 0.4 rev $ every 2 (rot "<1 3 2>")
    $ n "0 <0 4> [1 0] [2 3]" 
    # s "<feel:4 feel:2>" # speed 2 

-- | super bassline!
d8 $ juxBy 0.5 rev $ chunk 4 ((+ speed (1 + sine)) . ply 8) 
  $ note "3(2,8)" # sound "bass"
  # speed "<2 4>"
  # legato 2
  # gain "<4, 2>"
  # orbit 2

d3 silence
d1 silence
d2 silence
d5 silence

hush